X:3193
T:Colledge Hornpipe. JC.150
M:C|
L:1/8
Q:160
S:John Clare,Poet,Helpstone (1793-1864)
R:Hornpipe
O:England
A:Northamptonshire
N:
Z:P Headford
K:D
fe|d2D2D2A2|FAd2 dfed|e2E2E2e2|cea4bc'|!
d'c'ba bagf|gfed dcBA|Bdce dfeg|f2d2d2:|!
|:AG|FAdA FAdA|B2G2G2BA|^GBeB GBeB|c2A2A2ge|!
fgab bagf|fege dcBA|Bdce dfeg|f2d2d2:|]


